64x64/apps/com.github.keyilan.swatches.svg

<svg height="64" width="64" xmlns="http://www.w3.org/2000/svg"><path d="m5 44v12.8c0 2.327 1.866 4.2 4.184 4.2h44.632c2.318 0 3.681-1.929 4.184-4.2v-12.8z" opacity=".2"/><path d="m9.184 4a4.183 4.183 0 0 0 -4.184 4.2v35.14h53v-35.14c0-2.327-1.866-4.2-4.184-4.2z" fill="#ffbf3f"/><path d="m5 43v12.8c0 2.327 1.866 4.2 4.184 4.2h44.632c2.318 0 3.681-1.929 4.184-4.2v-12.8z" fill="#f4f4f7"/><rect fill="#4f4f4f" height="3" opacity=".6" rx="1.5" width="18" x="8" y="53"/><rect fill="#4f4f4f" height="3" rx="1.5" width="36" x="8" y="47"/><path d="m9.184 4a4.182 4.182 0 0 0 -4.184 4.2v1c0-2.329 1.866-4.2 4.184-4.2h44.632a4.182 4.182 0 0 1 4.184 4.2v-1c0-2.329-1.866-4.2-4.184-4.2zm-4.184 39v1h53v-1z" fill="#f4f4f7" opacity=".2"/><path d="m5 42v1h53v-1z" opacity=".1"/></svg>

<svg xmlns="http://www.w3.org/2000/svg" width="64" height="64" version="1"><path style="opacity:.2" d="M5 44v12.8C5 59.127 6.866 61 9.184 61h44.632c2.318 0 3.681-1.929 4.184-4.2V44z"/><path style="fill:#ffbf3f" d="M9.184 4A4.183 4.183 0 0 0 5 8.2v35.14h53V8.2C58 5.873 56.134 4 53.816 4z"/><path style="fill:#f4f4f7" d="M5 43v12.8C5 58.127 6.866 60 9.184 60h44.632c2.318 0 3.681-1.929 4.184-4.2V43z"/><rect style="opacity:.6;fill:#4f4f4f" width="18" height="3" x="8" y="53" rx="1.5" ry="1.5"/><rect style="fill:#4f4f4f" width="36" height="3" x="8" y="47" rx="1.5" ry="1.5"/><path style="fill:#f4f4f7;opacity:.2" d="M9.184 4A4.182 4.182 0 0 0 5 8.2v1C5 6.871 6.866 5 9.184 5h44.632A4.182 4.182 0 0 1 58 9.2v-1C58 5.871 56.134 4 53.816 4H9.184zM5 43v1h53v-1H5z"/><path style="opacity:.1" d="M5 42v1h53v-1H5z"/></svg>
